X:2194 
T:There were two ships in the north country 
C:Traditional
O:Isle of Man
Z:Clague collection
B:Kiaull Vannin #194 
M:2/4 
L:1/4
K:D 
E E/F/|G G/G/|A A|B2|GF|EA|BE|E2|B/A/ B/c/|d c/B/|B/A/ B/c/|d2|
eB|B A/G/|G G/E/|F2 |G G/F/|E/D/ E/F/|GF|E d/c/|B B/A/|G/G/ F/F/|EF|E2||

